frontend-mozfest/src/assets/filter-icon.svg

<svg width="67" height="65" viewBox="0 0 67 65" fill="none" xmlns="http://www.w3.org/2000/svg">
<path d="M25.7572 10.9385C22.6782 10.9385 20.1425 13.2438 19.8256 16.2272H13.6676C13.4865 16.2272 13.3054 16.3176 13.2148 16.408C13.079 16.5436 13.0337 16.7245 13.0337 16.8601C13.0337 17.2217 13.3506 17.5381 13.7129 17.5381H19.8709C20.1878 20.5215 22.7235 22.8269 25.8025 22.8269C28.8815 22.8269 31.4171 20.5215 31.7341 17.5381H52.9248C53.287 17.5381 53.604 17.2217 53.604 16.8601C53.604 16.6793 53.5134 16.4984 53.4229 16.408C53.287 16.2724 53.1512 16.2272 52.9701 16.2272H31.7793C31.4624 13.2438 28.9267 10.9385 25.8477 10.9385H25.7572ZM25.7572 12.2494C28.3381 12.2494 30.3757 14.3287 30.3757 16.9053C30.3757 19.4818 28.2928 21.516 25.7572 21.516C23.2215 21.516 21.0934 19.4366 21.0934 16.9053C21.0934 14.3739 23.1763 12.2946 25.7572 12.2494ZM40.7899 26.2623C37.7109 26.2623 35.1753 28.5676 34.8583 31.551H13.6223C13.2601 31.551 12.9431 31.8674 12.9431 32.2291C12.9431 32.4099 13.0337 32.5907 13.1242 32.6811C13.2601 32.8167 13.4412 32.8619 13.577 32.8619H34.7678C35.0847 35.8453 37.6204 38.1507 40.6994 38.1507C43.7784 38.1507 46.314 35.8453 46.631 32.8619H52.789C52.9701 32.8619 53.1512 32.7715 53.2418 32.6811C53.3776 32.5455 53.4229 32.3647 53.4229 32.2291C53.4229 31.8674 53.1059 31.551 52.7437 31.551H46.5857C46.2687 28.5676 43.7331 26.2623 40.6541 26.2623H40.7899ZM40.7899 27.5732C43.3709 27.5732 45.4084 29.6525 45.4084 32.1839C45.4084 34.7152 43.3256 36.7946 40.7899 36.7946C38.2543 36.7946 36.1262 34.7152 36.1262 32.1839C36.1262 29.6525 38.209 27.5732 40.7899 27.5732ZM25.7572 41.5409C22.6782 41.5409 20.1425 43.8462 19.8256 46.8296H13.6676C13.4865 46.8296 13.3054 46.92 13.2148 47.0104C13.079 47.146 13.0337 47.3269 13.0337 47.4625C13.0337 47.8241 13.3506 48.1405 13.7129 48.1405H19.8709C20.1878 51.1239 22.7235 53.4293 25.8025 53.4293C28.8815 53.4293 31.4171 51.1239 31.7341 48.1405H52.9248C53.287 48.1405 53.604 47.8241 53.604 47.4625C53.604 47.2817 53.5134 47.1008 53.4229 47.0104C53.287 46.8748 53.1512 46.8296 52.9701 46.8296H31.7793C31.4624 43.8462 28.9267 41.5409 25.8477 41.5409H25.7572ZM25.7572 42.897C28.3381 42.897 30.3757 44.9763 30.3757 47.5077C30.3757 50.039 28.2928 52.1184 25.7572 52.1184C23.2215 52.1184 21.0934 50.039 21.0934 47.5077C21.0934 44.9763 23.1763 42.897 25.7572 42.897Z" fill="#0B02FF"/>
<rect x="0.5" y="0.5" width="66" height="64" rx="11.5" stroke="#0B02FF"/>
</svg>

<?xml version="1.0" encoding="UTF-8"?>
<svg id="Capa_1" xmlns="http://www.w3.org/2000/svg" version="1.1" viewBox="0 0 67 65">
  <!-- Generator: Adobe Illustrator 29.0.1, SVG Export Plug-In . SVG Version: 2.1.0 Build 192)  -->
  <defs>
    <style>
      .st0 {
        fill: #0b02ff;
      }

      .st1 {
        fill: none;
        stroke: #0b02ff;
      }
    </style>
  </defs>
  <path class="st0" d="M25.8,10.9c-3.1,0-5.6,2.3-5.9,5.3h-6.2c-.2,0-.4,0-.5.2-.1.1-.2.3-.2.5,0,.4.3.7.7.7h6.2c.3,3,2.9,5.3,5.9,5.3s5.6-2.3,5.9-5.3h21.2c.4,0,.7-.3.7-.7s0-.4-.2-.5c-.1-.1-.3-.2-.5-.2h-21.2c-.3-3-2.9-5.3-5.9-5.3h0ZM25.8,12.2c2.6,0,4.6,2.1,4.6,4.7s-2.1,4.6-4.6,4.6-4.7-2.1-4.7-4.6,2.1-4.6,4.7-4.7ZM40.8,26.3c-3.1,0-5.6,2.3-5.9,5.3H13.6c-.4,0-.7.3-.7.7s0,.4.2.5c.1.1.3.2.5.2h21.2c.3,3,2.9,5.3,5.9,5.3s5.6-2.3,5.9-5.3h6.2c.2,0,.4,0,.5-.2.1-.1.2-.3.2-.5,0-.4-.3-.7-.7-.7h-6.2c-.3-3-2.9-5.3-5.9-5.3h.1ZM40.8,27.6c2.6,0,4.6,2.1,4.6,4.6s-2.1,4.6-4.6,4.6-4.7-2.1-4.7-4.6,2.1-4.6,4.7-4.6ZM25.8,41.5c-3.1,0-5.6,2.3-5.9,5.3h-6.2c-.2,0-.4,0-.5.2-.1.1-.2.3-.2.5,0,.4.3.7.7.7h6.2c.3,3,2.9,5.3,5.9,5.3s5.6-2.3,5.9-5.3h21.2c.4,0,.7-.3.7-.7s0-.4-.2-.5c-.1-.1-.3-.2-.5-.2h-21.2c-.3-3-2.9-5.3-5.9-5.3h0ZM25.8,42.9c2.6,0,4.6,2.1,4.6,4.6s-2.1,4.6-4.6,4.6-4.7-2.1-4.7-4.6,2.1-4.6,4.7-4.6Z"/>
  <rect class="st1" x=".5" y=".5" width="66" height="64" rx="11.5" ry="11.5"/>
</svg>
